app/client/src/assets/icons/blueprintjs/20px/truck.svg

<?xml version="1.0" encoding="UTF-8"?>
<svg viewBox="0 0 20 20" version="1.1" xmlns="http://www.w3.org/2000/svg" xmlns:xlink="http://www.w3.org/1999/xlink">
    <g stroke="none" stroke-width="1" fill="none" fill-rule="evenodd">
        <path d="M16,0 C16.5522847,-1.01453063e-16 17,0.44771525 17,1 L17,12 C17.5522847,12 18,12.4477153 18,13 L18,16 L18.5,16 C18.7761424,16 19,16.2238576 19,16.5 L19,17.5 C19,17.7761424 18.7761424,18 18.5,18 L17,18 L17,19 C17,19.5522847 16.5522847,20 16,20 L15,20 C14.4477153,20 14,19.5522847 14,19 L14,18 L6,18 L6,19 C6,19.5522847 5.55228475,20 5,20 L4,20 C3.44771525,20 3,19.5522847 3,19 L3,18 L1.5,18 C1.22385763,18 1,17.7761424 1,17.5 L1,16.5 C1,16.2238576 1.22385763,16 1.5,16 L2,16 L2,13 C2,12.4477153 2.44771525,12 3,12 L3,1 C3,0.44771525 3.44771525,1.01453063e-16 4,0 C4.55228475,-1.01453063e-16 5,0.44771525 5,1 L5,4 C5,2.8954305 5.8954305,2 7,2 L13,2 C14.1045695,2 15,2.8954305 15,4 L15,1 C15,0.44771525 15.4477153,1.01453063e-16 16,0 Z M12,10 L8,10 C7.44771525,10 7,10.4477153 7,11 L7,11 L7,15 C7,15.5522847 7.44771525,16 8,16 L8,16 L12,16 C12.5522847,16 13,15.5522847 13,15 L13,15 L13,11 C13,10.4477153 12.5522847,10 12,10 L12,10 Z M5,14 L4,14 C3.44771525,14 3,14.4477153 3,15 C3,15.5522847 3.44771525,16 4,16 L4,16 L5,16 C5.55228475,16 6,15.5522847 6,15 C6,14.4477153 5.55228475,14 5,14 L5,14 Z M16,14 L15,14 C14.4477153,14 14,14.4477153 14,15 C14,15.5522847 14.4477153,16 15,16 L15,16 L16,16 C16.5522847,16 17,15.5522847 17,15 C17,14.4477153 16.5522847,14 16,14 L16,14 Z M11.5,14 C11.7761424,14 12,14.2238576 12,14.5 C12,14.7761424 11.7761424,15 11.5,15 L11.5,15 L8.5,15 L8.41012437,14.9919443 C8.17687516,14.9496084 8,14.7454599 8,14.5 C8,14.2238576 8.22385763,14 8.5,14 L8.5,14 Z M11.5,12.5 C11.7761424,12.5 12,12.7238576 12,13 C12,13.2761424 11.7761424,13.5 11.5,13.5 L11.5,13.5 L8.5,13.5 L8.41012437,13.4919443 C8.17687516,13.4496084 8,13.2454599 8,13 C8,12.7238576 8.22385763,12.5 8.5,12.5 L8.5,12.5 Z M11.5,11 C11.7761424,11 12,11.2238576 12,11.5 C12,11.7761424 11.7761424,12 11.5,12 L11.5,12 L8.5,12 L8.41012437,11.9919443 C8.17687516,11.9496084 8,11.7454599 8,11.5 C8,11.2238576 8.22385763,11 8.5,11 L8.5,11 Z M14,5 L6,5 L6,8 L14,8 L14,5 Z" fill="#000000"></path>
    </g>
</svg>

<svg xmlns="http://www.w3.org/2000/svg" viewBox="0 0 20 20"><path fill-rule="evenodd" d="M16 0a1 1 0 0 1 1 1v11a1 1 0 0 1 1 1v3h.5a.5.5 0 0 1 .5.5v1a.5.5 0 0 1-.5.5H17v1a1 1 0 0 1-1 1h-1a1 1 0 0 1-1-1v-1H6v1a1 1 0 0 1-1 1H4a1 1 0 0 1-1-1v-1H1.5a.5.5 0 0 1-.5-.5v-1a.5.5 0 0 1 .5-.5H2v-3a1 1 0 0 1 1-1V1a1 1 0 1 1 2 0v3a2 2 0 0 1 2-2h6a2 2 0 0 1 2 2V1a1 1 0 0 1 1-1Zm-4 10H8a1 1 0 0 0-1 1v4a1 1 0 0 0 1 1h4a1 1 0 0 0 1-1v-4a1 1 0 0 0-1-1Zm-7 4H4a1 1 0 0 0 0 2h1a1 1 0 0 0 0-2Zm11 0h-1a1 1 0 0 0 0 2h1a1 1 0 0 0 0-2Zm-4.5 0a.5.5 0 1 1 0 1h-3l-.09-.008A.5.5 0 0 1 8.5 14Zm0-1.5a.5.5 0 1 1 0 1h-3l-.09-.008a.5.5 0 0 1 .09-.992Zm0-1.5a.5.5 0 1 1 0 1h-3l-.09-.008A.5.5 0 0 1 8.5 11ZM14 5H6v3h8V5Z"/></svg>
